svg/equalizer_outline.svg

<svg xmlns="http://www.w3.org/2000/svg" viewBox="0 0 24 24"><path d="M15 21H9V3h6zm-4-2h2V5h-2zm-3 2H2V11h6zm-4-2h2v-6H4zm18 2h-6V8h6zm-4-2h2v-9h-2z"/></svg>

<?xml version="1.0" encoding="UTF-8"?><!DOCTYPE svg PUBLIC "-//W3C//DTD SVG 1.1//EN" "http://www.w3.org/Graphics/SVG/1.1/DTD/svg11.dtd"><svg xmlns="http://www.w3.org/2000/svg" xmlns:xlink="http://www.w3.org/1999/xlink" version="1.1" id="mdi-equalizer-outline" width="24" height="24" viewBox="0 0 24 24"><path d="M15,21H9V3H15V21M11,19H13V5H11V19M8,21H2V11H8V21M4,19H6V13H4V19M22,21H16V8H22V21M18,19H20V10H18V19Z" /></svg>
